X: 42580
T: When You're Gone I Say Your Name
R: waltz
M: 3/4
K: Dmajor
de|:"D"f4e2|"A9"g4f2|"D"f6-|f4de|f4e2|"A9"g4f2|"F#m7"e6-|e2c2d2|
"Bm7"a4cd|"G"g4f2|"A"e6|e2c2d2|"Bm7"a4cd|"D"d'4c'2|"G"c'6|b6|
"D"a4a2|a2g2f2|"A"e6|1 e3A de:|2 e6||
"Bm"B3cd2|d3ef2|"E"e6|^g3fe2|"D"f6|f2e2d2|"A"c6-|c4A2|
"F"a3g=f2|"C"e4d2|"A"c4A2|"E"B2e2d2|"F#m"c4A2|"E"B2A2B2|"A"c6|c4||

